src/images/svg/arrow-right.svg

<svg width="8" height="15" viewBox="0 0 8 15" fill="none" xmlns="http://www.w3.org/2000/svg">
    <path
        d="M0.355291 0.394637C0.242666 0.518919 0.153312 0.666543 0.0923468 0.829057C0.0313812 0.991571 0 1.16579 0 1.34173C0 1.51767 0.0313812 1.69188 0.0923468 1.8544C0.153312 2.01691 0.242666 2.16454 0.355291 2.28882L5.06911 7.50117L0.355291 12.7135C0.128132 12.9647 0.000514428 13.3054 0.000514428 13.6606C0.000514428 14.0158 0.128132 14.3565 0.355291 14.6077C0.582451 14.8589 0.890546 15 1.2118 15C1.53305 15 1.84114 14.8589 2.0683 14.6077L7.64471 8.44154C7.75734 8.31726 7.84669 8.16964 7.90765 8.00712C7.96862 7.84461 8 7.6704 8 7.49445C8 7.31851 7.96862 7.1443 7.90765 6.98178C7.84669 6.81927 7.75734 6.67165 7.64471 6.54736L2.0683 0.381203C1.60664 -0.129285 0.829104 -0.129285 0.355291 0.394637Z"
        fill-opacity="0.6" />
</svg>

<svg xmlns="http://www.w3.org/2000/svg" width="8" height="15">
    <path
        d="M.355.395a1.355 1.355 0 0 0-.263.434 1.462 1.462 0 0 0 0 1.025c.061.163.15.31.263.435L5.07 7.5.355 12.713a1.415 1.415 0 0 0-.354.948c0 .355.127.696.354.947.227.25.536.392.857.392.321 0 .63-.141.856-.392l5.577-6.166c.112-.125.202-.272.263-.435a1.462 1.462 0 0 0 0-1.025 1.355 1.355 0 0 0-.263-.435L2.068.381C1.607-.129.83-.129.355.395Z" />
</svg>
